img/socials/instagram.svg

<svg width="31" height="31" viewBox="0 0 31 31" fill="none" xmlns="http://www.w3.org/2000/svg">
<path d="M15.1032 30.8779C23.4008 30.8779 30.1274 23.9657 30.1274 15.439C30.1274 6.91226 23.4008 0 15.1032 0C6.80564 0 0.0791016 6.91226 0.0791016 15.439C0.0791016 23.9657 6.80564 30.8779 15.1032 30.8779Z" fill="url(#paint0_linear)"/>
<path d="M19.0411 6.50586H11.1662C8.54411 6.50586 6.41113 8.69773 6.41113 11.3922V19.4846C6.41113 22.179 8.54411 24.3709 11.1662 24.3709H19.0411C21.6632 24.3709 23.7962 22.179 23.7962 19.4846V11.3922C23.7962 8.69773 21.6632 6.50586 19.0411 6.50586ZM22.5748 19.4846C22.5748 21.4869 20.9894 23.1158 19.0408 23.1158H11.1662C9.21766 23.1158 7.63217 21.4866 7.63217 19.4846V11.3922C7.63217 9.38989 9.21766 7.76061 11.1662 7.76061H19.0411C20.9897 7.76061 22.5748 9.38987 22.5748 11.3922V19.4846Z" fill="white" stroke="#FFFDFD" stroke-width="0.192987"/>
<path d="M15.103 10.9165C12.6767 10.9165 10.7031 12.9446 10.7031 15.4379C10.7031 17.9312 12.6767 19.9593 15.103 19.9593C17.5294 19.9593 19.503 17.9312 19.503 15.4379C19.503 12.9446 17.5294 10.9165 15.103 10.9165ZM15.103 18.7929C13.303 18.7929 11.8382 17.2877 11.8382 15.4379C11.8382 13.5882 13.303 12.083 15.103 12.083C16.9031 12.083 18.3679 13.5882 18.3679 15.4379C18.3679 17.2877 16.9031 18.7929 15.103 18.7929Z" fill="white" stroke="#FFFDFD" stroke-width="0.192987"/>
<path d="M20.4697 8.82153C19.8779 8.82153 19.3965 9.31628 19.3965 9.92432C19.3965 10.5324 19.8777 11.0271 20.4697 11.0271C21.0616 11.0271 21.5428 10.5324 21.5428 9.92432C21.5428 9.31628 21.0616 8.82153 20.4697 8.82153ZM20.4697 10.2266C20.3073 10.2266 20.1752 10.0909 20.1752 9.92405C20.1752 9.75718 20.3073 9.6215 20.4697 9.6215C20.6321 9.6215 20.7643 9.75718 20.7643 9.92405C20.7643 10.0909 20.6323 10.2266 20.4697 10.2266Z" fill="white"/>
<defs>
<linearGradient id="paint0_linear" x1="15.1032" y1="0" x2="15.1032" y2="30.8779" gradientUnits="userSpaceOnUse">
<stop stop-color="#3C386D"/>
<stop offset="1" stop-color="#1D1B45"/>
</linearGradient>
</defs>
</svg>

<svg width="31" height="31" fill="none" xmlns="http://www.w3.org/2000/svg"><path d="M15.103 30.878c8.298 0 15.024-6.912 15.024-15.439C30.127 6.912 23.401 0 15.103 0 6.806 0 .08 6.912.08 15.439c0 8.527 6.727 15.439 15.024 15.439z" fill="url(#paint0_linear)"/><path d="M19.041 6.506h-7.875c-2.622 0-4.755 2.192-4.755 4.886v8.093c0 2.694 2.133 4.886 4.755 4.886h7.875c2.622 0 4.755-2.192 4.755-4.886v-8.093c0-2.694-2.133-4.886-4.755-4.886zm3.534 12.979c0 2.002-1.586 3.63-3.534 3.63h-7.875c-1.948 0-3.534-1.628-3.534-3.63v-8.093c0-2.002 1.586-3.631 3.534-3.631h7.875c1.949 0 3.534 1.629 3.534 3.631v8.093z" fill="#fff" stroke="#FFFDFD" stroke-width=".193"/><path d="M15.103 10.916c-2.426 0-4.4 2.029-4.4 4.522 0 2.493 1.974 4.521 4.4 4.521s4.4-2.028 4.4-4.521-1.974-4.522-4.4-4.522zm0 7.877c-1.8 0-3.265-1.505-3.265-3.355s1.465-3.355 3.265-3.355 3.265 1.505 3.265 3.355-1.465 3.355-3.265 3.355z" fill="#fff" stroke="#FFFDFD" stroke-width=".193"/><path d="M20.47 8.822c-.592 0-1.073.494-1.073 1.102 0 .608.48 1.103 1.073 1.103.592 0 1.073-.495 1.073-1.103s-.481-1.102-1.073-1.102zm0 1.405a.299.299 0 01-.295-.303.3.3 0 01.295-.303.3.3 0 01.294.303.299.299 0 01-.294.303z" fill="#fff"/><defs><linearGradient id="paint0_linear" x1="15.103" y1="0" x2="15.103" y2="30.878" gradientUnits="userSpaceOnUse"><stop stop-color="#3C386D"/><stop offset="1" stop-color="#1D1B45"/></linearGradient></defs></svg>
